X:1
T:He Is Waiting for Your Answer
T:He Is Waiting for Your Answer
T:Charles Hutchinson Gabriel
T:Charles F. Barrett, 1907
T:Public Domain Courtesy of the Cyber Hymnal™
T:Public Domain Courtesy of the Cyber Hymnal™
C:Charles Hutchinson Gabriel
Z:Public Domain
Z:Courtesy of the Cyber Hymnal™
%%score ( 1 2 ) ( 3 4 )
L:1/8
Q:1/4=105
M:4/4
K:Eb
V:1 treble 
V:2 treble 
V:3 bass 
V:4 bass 
V:1
 [EG][B,F] | [B,E]2 [B,E]2 [CE]2 [CE]2 | [B,E]2 [B,E]4 [EG][EA] | [EB]2 [EB]2 [DB]2 [FB]2 | %4
w: 1.~When the|world no long- er|charms you, And your|soul for safe- ty|
w: 2.~Had you|list- ened ere sin|bound you, Eas- ier|far it would have|
w: 3.~Give the|an- swer while He|lin- gers, While His|Spir- it pleads with|
 [EB]6 [EB][EB] | [Ec]2 [Ee]2 [Ed]2 [Ec]2 | [EB]2 [Ec]2 [EB]2 [EG]2 | [EF]2 [EG]2 [EF]2 [EG]2 | %8
w: yearns, When the|tears have wet your|pil- low, And your|heart to Je- sus|
w: been; Chains of|ap- pe- tite or|ha- bit Could not|now the vic- tory|
w: you; Let it|be, “I now sur-|ren- der All to|Thee, Thy will to|
 [DF]6 [DG][B,F] | [B,E]2 [B,E]2 [CE]2 [CE]2 | [B,E]2 [B,E]4 [EG][EA] | [EB]2 [EB]2 [DB]2 [FB]2 | %12
w: turns, Do you|know the Sav- ior’s|wait- ing, Ask- ing|that your will may|
w: win; Still to-|day He of- fers|par- don, Thro’ His|blood’s life giv- ing|
w: do!” Leav- ing|all of sin be-|hind thee, Catch a|glimpse of Heav’n be-|
 [EB]6 [EB][EB] | [Ec]2 [Ee]2 [Ed]2 [Ec]2 | [EB]2 [Ee]4 E[EF] | [EG]2 [EB]2 [DG]2 [DF]2 | E6 || %17
w: bow? He is|wait- ing for your|an- swer, Give, O|give it to Him|now!|
w: flow; He is|wait- ing for your|an- swer, Give, O|give it to Him|now!|
w: low; He is|wait- ing for your|an- swer, Give, O|give it to Him|now!|
"^Refrain" [Ge][Ge] | [Ae]2 [Ac]2 [Ae]2 [Ac]2 | [Ad]2 [FA]4 [Ac][Ae] | [Ad]2 [FA]2 [Ad]2 [FA]2 | %21
w: ||||
w: He is|wait- ing for your|an- swer, He is|wait- ing for your|
w: ||||
 A2 [GB]4 [GB][GB] | [F=A]2 [FA]2 [EG]2 F2 | [Fe]6 [EG][E=A] | [DG]2 [DF]2 [DF]2 [DB]2 | %25
w: ||||
w: an- swer, Give it|ere it is too|late, Do not|let Him long- er|
w: ||||
 [Fd]6 [Ac][Ad] | [Ge]2 [Gc]2 [Ge]2 [Gc]2 | [Ad]2 [FA]4 [Ac][Ae] | [Ad]2 [FA]2 [Ad]2 [FA]2 | %29
w: ||||
w: wait; He is|wait- ing for your|an- swer, He is|wait- ing for your|
w: ||||
 [Ac]2 [GB]4 [EB][EB] | [Ec]2 [Ee]2 [Ed]2 [Ec]2 | [EB]2 [Ee]4 E[EF] | [EG]2 [EB]2 [DG]2 [DF]2 | %33
w: ||||
w: an- swer, He is|wait- ing for your|an- swer, Give, O|give it to Him|
w: ||||
 E6 |] %34
w: |
w: now!|
w: |
V:2
 x2 | x8 | x8 | x8 | x8 | x8 | x8 | x8 | x8 | x8 | x8 | x8 | x8 | x8 | x6 E x | x8 | E6 || x2 | %18
 x8 | x8 | x8 | A2 x6 | x6 F2 | x8 | x8 | x8 | x8 | x8 | x8 | x8 | x8 | x6 E x | x8 | E6 |] %34
V:3
 [E,B,][E,A,] | [E,G,]2 [E,G,]2 [E,A,]2 [E,A,]2 | [E,G,]2 [E,G,]4 [E,B,][E,F,] | %3
 [E,G,]2 [E,G,]2 [B,,F,]2 [B,,A,]2 | [E,G,]6 [E,G,][E,G,] | A,2 [A,C]2 [A,B,]2 A,2 | %6
 [E,G,]2 [E,A,]2 [E,G,]2 [E,B,]2 | [C,=A,]2 [C,A,]2 [F,A,]2 [F,A,]2 | [B,,B,]6 [B,,B,][B,,A,] | %9
 [E,G,]2 [E,G,]2 [E,A,]2 [E,A,]2 | [E,G,]2 [E,G,]4 [E,B,][E,F,] | %11
 [E,G,]2 [E,G,]2 [B,,F,]2 [B,,A,]2 | [E,G,]6 [E,G,][E,G,] | A,2 [A,C]2 [A,B,]2 A,2 | %14
 [E,G,]2 [C,G,]4 [_C,=A,][C,A,] | [B,,B,]2 [B,,G,]2 [B,,B,]2 [B,,A,]2 | [E,G,]6 || [E,B,][E,B,] | %18
 [F,B,]2 [F,D]2 [F,B,]2 [F,D]2 | [B,,F,B,]2 [B,,B,D]4 [B,,D][B,,B,] | %20
 [B,,B,]2 [B,,D]2 [B,,B,]2 [B,,D]2 | [E,E]2 [E,E]4 [E,E][E,E] | [F,E]2 [F,E]2 [F,C]2 [F,=A,]2 | %23
 [F,C]6 [F,=A,][F,A,] | [B,,B,]2 [B,,B,]2 [B,,B,]2 [B,,F,]2 | [B,,B,]6 B,B, | %26
 [E,B,]2 [E,B,]2 [E,B,]2 [E,B,]2 | [F,B,]2 [B,D]4 [B,,D][B,,B,] | %28
 [B,,B,]2 [B,,D]2 [B,,B,]2 [B,,D]2 | [E,D]2 [E,E]4 [E,G,][E,G,] | A,2 [A,C]2 [A,B,]2 A,2 | %31
 [E,G,]2 [C,G,]4 [_C,=A,][C,A,] | [B,,B,]2 [B,,G,]2 [B,,B,]2 [B,,A,]2 | [E,G,]6 |] %34
V:4
 x2 | x8 | x8 | x8 | x8 | A,2 x2 A,2 x2 | x8 | x8 | x8 | x8 | x8 | x8 | x8 | A,2 x2 A,2 x2 | x8 | %15
 x8 | x6 || x2 | x8 | x8 | x8 | x8 | x8 | x8 | x8 | x6 B,B, | x8 | x8 | x8 | x8 | A,2 x2 A,2 x2 | %31
 x8 | x8 | x6 |] %34

